X:1
T:Title
%%score ( 1 2 ) { ( 3 5 ) | ( 4 6 ) }
L:1/8
Q:1/4=105
M:4/4
K:F
V:1 treble nm="Grand Piano, Soprano"
V:2 treble 
V:3 treble nm="Choir Pad, Bass"
V:5 treble 
V:4 bass 
V:6 bass 
V:1
 [Ec]2 [FA]2- [FA][FA] [FA]2 | [FA][FB] [Fc]2- [Fc][Dc] [Ec]2 | [Ec]2 [Ff]2 [Ff]>[Ff] [Fe]>[Fe] | %3
w: By~George~Pierce~Grantham * * * *|||
 [Fd]2 [Fc]6 | [Fc]2 [^Fd]2- [Fd][Fd] [GB]2 | [Gd][Gd] c2- c/ z/ c [FA]2 | %6
w: |||
 [Fc]2 [FA]2 [FB][Fc] [FA]2 | F2 [EG]6 | cB [FA]2- [FA][FA] [FA]2 | %9
w: |||
 [DF][DG] A2- [^C-A]/C/[=B,A] [CA]2 | [DF]2 [DG][EG] [FA]2 [Fc]2 | [EG]2 [FA]6 | %12
w: |||
 [Fc]2 [^Fd]2- [Fd][GB] [Gc]2 | [FA][FA] [FB]2- [FB][EG] A2- | AB [Fc]2 [Dd][DB]A-[FA] | [EG]2 F6 | %16
w: ||||
 z2 [FA]2 [FA][FA] [FA]2 | B-[EB] [Fc]6 | z2 [Ff]2 [Ff][Ff][Ge][Ge] | [Gd]2 [Ac]6 | %20
w: ||||
 [Fc]2 [Fd][Fd] [^Fd]2 [GB]2 | [Ac][Bd] c2- c/ z/ c [FA]2 | [FA]2 [Ec]2 [Fc][Fc] [Fc]2 | %23
w: |||
 [Ec]2 F6- | F2 z2 z4 |] %25
w: ||
V:2
 x8 | x8 | x8 | x8 | x8 | z2 G2 E2 z2 | x8 | x8 | E2 z2 z4 | z2 D2 z4 | x8 | x8 | x8 | z4 z2 E2 | %14
 F2 z2 z2 .C2 | x8 | x8 | .F2 z2 z4 | x8 | x8 | x8 | z2 G2 E2 z2 | x8 | x8 | x8 |] %25
V:3
 C2 C2- CC C2 | F,F, G,2- G,F, G,2 | G,2[K:treble] C2 C>C C>C | B,2 A,6 | %4
 A,2 A,2- A,[K:treble]D D2 | B,B, C2 C2 C2 | A,2 C2 CC C2 | =B,2 C6 | G,2 A,2- A,G, F,2 | %9
 F,D, E,2- E,D, E,2 | F,A,B,B, A,2 A,G, | C2 C6 | z4 D2 z2 | CC D2- D[K:bass]B, A,2- | %14
 A,2 F,2 F,G, A,2 | B,2 A,6 | z2[K:treble] C2 CC C2 | B,2 A,6 | z2 A,2 DDCC | B,2 A,6 | %20
 A,2 A,A,[K:treble] D2 D2 | CB, C2 C2 C2 | D2[K:bass] G,2 CA, G,2 | G,B, A,6- | A,2 z2 z4 |] %25
V:4
 C,2 F,2- F,F, F,2 | D,D, C,2- C,C, C,2 | C,2 A,,2 A,,>A,, B,,>B,, | D,2 F,6 | F,2 D,2- D,D, G,2 | %5
 G,G, E,2 C,2 F,2 | F,2 F,2 G,A, F,2 | D,2 C,6 | C,2 F,2- F,E, D,2 | D,B,, A,,2- A,,A,, A,,2 | %10
 D,2 G,G, F,2 C,2 | C,2 F,6 | F,2 .D,4 E,2 | F,F, D,2- D,D, ^C,2 | D,2 z2 z4 | C,2 F,6 | %16
 z2 F,2 F,F, F,2 | G,2 z2 z4 | z2 D,2 D,D,E,E, | E,2 F,6 | F,2 D,D, D,2 G,2 | G,G, E,2 C,2 F,2 | %22
 D,2 C,2 A,,A,, B,,2 | C,2 F,6- | F,2 z2 z4 |] %25
V:5
 x8 | x8 | x2[K:treble] x6 | x8 | x5[K:treble] x3 | x8 | x8 | x8 | x8 | x8 | x8 | x8 | %12
 A,2 A,2 z G, C2 | x5[K:bass] x3 | x8 | x8 | x2[K:treble] x6 | x8 | x8 | x8 | x4[K:treble] x4 | %21
 x8 | x2[K:bass] x6 | x8 | x8 |] %25
V:6
 x8 | x8 | x8 | x8 | x8 | x8 | x8 | x8 | x8 | x8 | x8 | x8 | x8 | x8 | z F, A,,2 B,,B,, C,2 | x8 | %16
 x8 | x8 | x8 | x8 | x8 | x8 | x8 | x8 | x8 |] %25

